src/assets/img/whatsapp.svg

<svg width="41" height="40" viewBox="0 0 41 40" fill="none" xmlns="http://www.w3.org/2000/svg">
<path fill-rule="evenodd" clip-rule="evenodd" d="M4.60547 37.0809C5.51054 34.1588 6.55956 31.3807 7.51862 28.5128C1.1612 17.3939 9.02884 4.87664 19.6852 3.83687C29.7465 2.85502 37.9958 10.0819 38.0208 19.9447C38.0471 30.3516 27.9539 39.0903 16.6007 35.5385C15.7443 35.2706 14.6846 34.3976 13.6875 34.3389C12.294 34.2569 10.4678 35.2574 9.06071 35.7098C7.51845 36.206 6.17738 36.7032 4.60547 37.0809ZM14.0303 31.2546C23.1984 36.8187 34.1764 30.5778 35.1077 21.487C35.9505 13.2574 29.3794 5.93493 20.5419 6.57864C10.4527 7.31335 4.39227 19.3567 10.603 28.17C10.0532 29.6767 9.5387 31.2186 9.06071 32.7969C10.744 32.3094 12.2957 31.6906 14.0303 31.2546Z" fill="#171717"/>
<path fill-rule="evenodd" clip-rule="evenodd" d="M17.6288 12.2336C18.5932 14.2508 20.0849 17.2344 17.6288 18.5741C18.8761 21.211 20.9384 23.0329 23.6263 24.229C24.5202 23.6377 25.1072 22.7395 25.8541 22.0014C27.4144 22.6117 28.8728 23.3236 30.138 24.229C30.268 27.177 27.7839 28.2671 25.6827 28.1703C21.2499 27.9663 15.1575 22.3661 13.6875 18.2313C12.8152 15.778 13.8185 11.0855 17.6288 12.2336Z" fill="#171717"/>
</svg>

<svg xmlns="http://www.w3.org/2000/svg" width="41" height="40" fill="none"><path fill="#171717" fill-rule="evenodd" d="M4.605 37.08c.906-2.921 1.955-5.7 2.914-8.567C1.16 17.393 9.029 4.877 19.685 3.837c10.062-.982 18.31 6.245 18.336 16.108.026 10.407-10.067 19.145-21.42 15.593-.857-.267-1.916-1.14-2.913-1.2-1.394-.081-3.22.92-4.627 1.372-1.543.496-2.884.993-4.456 1.37m9.425-5.825c9.168 5.564 20.146-.677 21.078-9.768.843-8.23-5.729-15.552-14.566-14.908-10.09.734-16.15 12.778-9.939 21.591a87 87 0 0 0-1.542 4.627c1.683-.488 3.235-1.106 4.97-1.542" clip-rule="evenodd"/><path fill="#171717" fill-rule="evenodd" d="M17.629 12.234c.964 2.017 2.456 5 0 6.34 1.247 2.637 3.31 4.459 5.997 5.655.894-.591 1.481-1.49 2.228-2.228 1.56.61 3.019 1.323 4.284 2.228.13 2.948-2.354 4.038-4.455 3.941-4.433-.204-10.525-5.804-11.995-9.939-.873-2.453.13-7.146 3.94-5.997" clip-rule="evenodd"/></svg>
